src/content/resume/images/nectar.svg

<svg width="128" height="64" viewBox="0 0 128 64" fill="none" xmlns="http://www.w3.org/2000/svg">
<path d="M42.4143 21.54H39.3723C39.0083 21.54 38.7743 21.696 38.7743 21.956V22.06C38.7743 22.684 39.8923 22.944 39.8923 24.036V35.32L31.5723 24.062C30.7663 22.996 32.0663 22.554 32.0663 22.06V21.956C32.0663 21.696 31.8583 21.54 31.5203 21.54H26.1643C25.8003 21.54 25.5663 21.696 25.5663 21.956V22.06C25.5663 22.71 26.6063 22.944 26.6063 24.062V37.452C26.6063 38.544 25.5663 38.83 25.5663 39.48V39.558C25.5663 39.844 25.8003 40 26.1643 40H29.1803C29.5443 40 29.7783 39.844 29.7783 39.558V39.48C29.7783 38.83 28.6083 38.544 28.6083 37.452V26.012L38.4623 39.194C38.8523 39.74 39.1643 40 39.6583 40H40.8803C41.5043 40 41.8943 39.61 41.8943 38.96V24.036C41.8943 22.944 43.0123 22.684 43.0123 22.06V21.956C43.0123 21.696 42.7783 21.54 42.4143 21.54Z" fill="currentColor"/>
<path d="M54.5122 36.048C54.0182 36.854 52.9262 37.556 51.4182 37.556C49.6762 37.556 48.3502 36.49 47.6742 34.826C48.6102 34.904 49.7282 34.904 50.8722 34.67C53.3162 34.228 55.0322 32.772 55.0322 30.9C55.0322 28.612 52.9782 27.234 50.0662 27.26C46.5562 27.286 43.6962 29.834 43.6962 33.656C43.6962 37.608 46.4002 40.26 50.2222 40.26C53.7062 40.26 55.2662 37.842 55.3962 36.334C55.4482 35.788 54.8242 35.658 54.5122 36.048ZM49.5722 28.456C50.6902 28.456 51.4702 29.496 51.4962 30.744C51.4962 32.538 50.7942 33.24 49.7022 33.448C49.0262 33.604 48.1162 33.63 47.3102 33.578C47.2062 33.058 47.1542 32.512 47.1542 31.94C47.1542 29.938 48.1162 28.456 49.5722 28.456Z" fill="currentColor"/>
<path d="M62.7288 40.26C66.1088 40.26 67.8768 38.154 68.0328 36.022C68.0848 35.45 67.4348 35.346 67.1228 35.762C66.5768 36.698 65.5888 37.582 64.0028 37.582C61.3508 37.582 59.5828 35.32 59.5828 31.862C59.5828 29.938 60.5188 28.404 62.0008 28.404C64.2628 28.378 64.1068 32.07 66.3428 32.2C67.5388 32.252 67.9548 31.576 67.9548 30.9C67.9548 28.872 65.5628 27.234 62.5728 27.26C59.0628 27.286 56.0208 29.73 56.0208 33.734C56.0208 37.244 58.8028 40.26 62.7288 40.26Z" fill="currentColor"/>
<path d="M74.0092 40.26C76.6092 40.26 78.0132 38.336 78.0132 36.464C78.0132 35.97 77.3892 35.866 77.0772 36.308C76.8692 36.906 76.3492 37.478 75.3092 37.478C74.5552 37.478 73.9832 36.854 73.9832 35.814V29.028H76.9732C77.2592 29.028 77.4932 28.82 77.4932 28.508V28.066C77.4932 27.754 77.2592 27.52 76.9732 27.52H73.9832L73.9572 24.946C73.9572 24.556 73.7492 24.322 73.3852 24.322H72.8652C72.5792 24.322 72.3452 24.556 72.2672 24.946C71.9812 26.48 70.9672 27.52 69.5112 27.52H68.8612C68.5232 27.52 68.3412 27.728 68.3412 28.066V28.508C68.3412 28.82 68.5492 29.028 68.8612 29.028H70.0832V35.762C70.0832 38.726 71.6432 40.26 74.0092 40.26Z" fill="currentColor"/>
<path d="M92.1777 28.612V28.534C92.1777 28.17 91.9957 27.962 91.6317 27.884L88.9017 27.416C88.2257 27.286 87.7837 27.572 87.7837 28.066V28.586C86.9777 27.78 85.8597 27.26 84.3777 27.26C81.0497 27.26 78.2417 29.886 78.2417 33.734C78.2417 37.92 81.1797 40.26 84.3517 40.26C85.7037 40.26 86.9777 39.766 87.7837 38.804V39.428C87.7837 39.766 88.0437 40 88.3817 40H91.5797C91.9177 40 92.0997 39.844 92.0997 39.558V39.48C92.0997 38.856 91.0857 38.596 91.0857 37.504V30.692C91.0857 29.418 92.1777 29.106 92.1777 28.612ZM85.2097 39.142C83.0517 39.064 81.8557 35.06 81.9597 32.2C82.0117 29.782 82.9997 28.378 84.5857 28.378C86.1197 28.378 87.4197 29.964 87.4197 31.784V36.36C87.4197 38.206 86.2757 39.142 85.2097 39.142Z" fill="currentColor"/>
<path d="M101.219 27.26C99.4772 27.26 98.2552 28.17 97.6832 29.834V27.884C97.6832 27.39 97.4492 27.078 96.8512 27.364L93.7312 28.82C93.3932 28.976 93.1852 29.184 93.1852 29.444V29.548C93.1852 30.198 94.3812 30.276 94.3812 31.42V37.504C94.3812 38.596 93.3672 38.804 93.3672 39.454V39.558C93.3672 39.844 93.6012 40 93.9652 40H98.7752C99.1132 40 99.3472 39.844 99.3472 39.558V39.454C99.3472 38.804 98.0472 38.596 98.0472 37.504V32.304C98.0472 30.874 98.4112 29.444 99.4252 29.444C100.829 29.444 99.9192 31.68 101.947 31.68C103.195 31.68 103.611 30.718 103.611 29.626C103.611 28.3 102.753 27.26 101.219 27.26Z" fill="currentColor"/>
</svg>

<svg xmlns="http://www.w3.org/2000/svg" width="128" height="64" fill="none" viewBox="0 0 128 64"><path fill="currentColor" d="M42.414 21.54h-3.042c-.364 0-.598.156-.598.416v.104c0 .624 1.118.884 1.118 1.976V35.32l-8.32-11.258c-.806-1.066.494-1.508.494-2.002v-.104c0-.26-.208-.416-.546-.416h-5.356c-.364 0-.598.156-.598.416v.104c0 .65 1.04.884 1.04 2.002v13.39c0 1.092-1.04 1.378-1.04 2.028v.078c0 .286.234.442.598.442h3.016c.364 0 .598-.156.598-.442v-.078c0-.65-1.17-.936-1.17-2.028v-11.44l9.854 13.182c.39.546.702.806 1.196.806h1.222c.624 0 1.014-.39 1.014-1.04V24.036c0-1.092 1.118-1.352 1.118-1.976v-.104c0-.26-.234-.416-.598-.416ZM54.512 36.048c-.494.806-1.586 1.508-3.094 1.508-1.742 0-3.068-1.066-3.744-2.73.936.078 2.054.078 3.198-.156 2.444-.442 4.16-1.898 4.16-3.77 0-2.288-2.054-3.666-4.966-3.64-3.51.026-6.37 2.574-6.37 6.396 0 3.952 2.704 6.604 6.526 6.604 3.484 0 5.044-2.418 5.174-3.926.052-.546-.572-.676-.884-.286Zm-4.94-7.592c1.118 0 1.898 1.04 1.924 2.288 0 1.794-.702 2.496-1.794 2.704-.676.156-1.586.182-2.392.13a8.338 8.338 0 0 1-.156-1.638c0-2.002.962-3.484 2.418-3.484ZM62.729 40.26c3.38 0 5.148-2.106 5.304-4.238.052-.572-.598-.676-.91-.26-.546.936-1.534 1.82-3.12 1.82-2.652 0-4.42-2.262-4.42-5.72 0-1.924.936-3.458 2.418-3.458 2.262-.026 2.106 3.666 4.342 3.796 1.196.052 1.612-.624 1.612-1.3 0-2.028-2.392-3.666-5.382-3.64-3.51.026-6.552 2.47-6.552 6.474 0 3.51 2.782 6.526 6.708 6.526ZM74.01 40.26c2.6 0 4.003-1.924 4.003-3.796 0-.494-.624-.598-.936-.156-.208.598-.728 1.17-1.768 1.17-.754 0-1.326-.624-1.326-1.664v-6.786h2.99c.286 0 .52-.208.52-.52v-.442a.528.528 0 0 0-.52-.546h-2.99l-.026-2.574c0-.39-.208-.624-.572-.624h-.52c-.286 0-.52.234-.598.624-.286 1.534-1.3 2.574-2.756 2.574h-.65c-.338 0-.52.208-.52.546v.442c0 .312.208.52.52.52h1.222v6.734c0 2.964 1.56 4.498 3.926 4.498ZM92.178 28.612v-.078c0-.364-.182-.572-.546-.65l-2.73-.468c-.676-.13-1.118.156-1.118.65v.52c-.806-.806-1.924-1.326-3.406-1.326-3.328 0-6.136 2.626-6.136 6.474 0 4.186 2.938 6.526 6.11 6.526 1.352 0 2.626-.494 3.432-1.456v.624c0 .338.26.572.598.572h3.198c.338 0 .52-.156.52-.442v-.078c0-.624-1.014-.884-1.014-1.976v-6.812c0-1.274 1.092-1.586 1.092-2.08Zm-6.968 10.53c-2.158-.078-3.354-4.082-3.25-6.942.052-2.418 1.04-3.822 2.626-3.822 1.534 0 2.834 1.586 2.834 3.406v4.576c0 1.846-1.144 2.782-2.21 2.782ZM101.219 27.26c-1.742 0-2.964.91-3.536 2.574v-1.95c0-.494-.234-.806-.832-.52l-3.12 1.456c-.338.156-.546.364-.546.624v.104c0 .65 1.196.728 1.196 1.872v6.084c0 1.092-1.014 1.3-1.014 1.95v.104c0 .286.234.442.598.442h4.81c.338 0 .572-.156.572-.442v-.104c0-.65-1.3-.858-1.3-1.95v-5.2c0-1.43.364-2.86 1.378-2.86 1.404 0 .494 2.236 2.522 2.236 1.248 0 1.664-.962 1.664-2.054 0-1.326-.858-2.366-2.392-2.366Z"/></svg>
